outputs/icons/action/pin_sharp.svg

<svg xmlns="http://www.w3.org/2000/svg" width="1200" height="1200" fill="none"><g clip-path="url(#a)"><path fill="#000" d="M600 100c-210 0-400 161-400 410 0 159 155.5 374.5 400 590 244-215.5 400-431 400-590 0-249-190-410-400-410m0 500c-55 0-100-45-100-100s45-100 100-100 100 45 100 100-45 100-100 100"/></g><defs><clipPath id="a"><path fill="#fff" d="M0 0h1200v1200H0z"/></clipPath></defs></svg>

<svg width="1200" height="1200" viewBox="0 0 1200 1200" fill="none" xmlns="http://www.w3.org/2000/svg"><g clip-path="url(#clip0_117_799)"><path d="M600 100C390 100 200 261 200 510C200 669 355.5 884.5 600 1100C844 884.5 1000 669 1000 510C1000 261 810 100 600 100ZM600 600C545 600 500 555 500 500C500 445 545 400 600 400C655 400 700 445 700 500C700 555 655 600 600 600Z" fill="black"/></g><defs><clipPath id="clip0_117_799"><path width="24" fill="white" d="M0 0H1200V1200H0V0z"/></clipPath></defs></svg>
